assets/icons/ic_transfer.svg

<svg fill="none" height="13" viewBox="0 0 15 13" width="15" xmlns="http://www.w3.org/2000/svg"><path d="m9.90625 6.72499 3.63545-2.90833-3.63545-2.908335v2.180525h-9.452087v1.45416h9.452087zm5.08955 2.18125h-9.45205v-2.18125l-3.63542 2.90834 3.63542 2.90837v-2.1813h9.45205z" fill="#fff"/></svg>

<svg width="15" height="13" viewBox="0 0 15 13" fill="none" xmlns="http://www.w3.org/2000/svg">
<path d="M9.90625 6.72499L13.5417 3.81666L9.90625 0.908325V3.08885H0.454163V4.54301H9.90625V6.72499ZM14.9958 8.90624H5.54375V6.72499L1.90833 9.63333L5.54375 12.5417V10.3604H14.9958V8.90624Z" fill="white"/>
</svg>
